X: 607
T: Zhu niangjia
L: 1/8
M: 3/4
K: Bb
b2c'4 [I:setbarnb 1]| 
f'2c' d' c' b | 
c' ba2g2 | 
f6 | 
b2c'4 | 
f'2c' d' c' b | 
c'4z2 | 
f2b2c'2 | 
f' f' f'c'2b | 
f2b2c' d' | 
c'2b2a g | 
f2f4 | 
g2c' d' c' b | 
f6 |]

@@@ Tune index: 9481
